X: 22
T: ROND DE SAUTRON Pique Tourne
M: 4/4
L: 1/8
Q:1/4=75
K:G
|D/2GGGE/2 F/2DDGG|GE/2F/2D2 GGGE/2F/2|DDGG GE/2F/2D2|AAGA BBGB|
cBAG D/2D/2E/2F/2GG/2G/2|G/2F/2E/2DD/2D/2D/2 E/2F/2GG/2G/2G/2F/2|E/2D2BG
A2DE/2|F/2GGBGA2DE/2|
F/2G2BGA2DE/2|F/2GGBGA2DE/2|F/2G2|
